images/4472.svg

<?xml version="1.0" encoding="UTF-8"?>
<svg xmlns="http://www.w3.org/2000/svg" xmlns:xlink="http://www.w3.org/1999/xlink" width="300pt" height="300pt" viewBox="0 0 300 300" version="1.1">
<defs>
<g>
<symbol overflow="visible" id="glyph0-0">
<path style="stroke:none;" d="M 0.453125 1.59375 L 0.453125 -6.34375 L 4.953125 -6.34375 L 4.953125 1.59375 Z M 0.953125 1.09375 L 4.453125 1.09375 L 4.453125 -5.84375 L 0.953125 -5.84375 Z M 0.953125 1.09375 "/>
</symbol>
<symbol overflow="visible" id="glyph0-1">
<path style="stroke:none;" d="M 0.890625 -6.5625 L 2.078125 -6.5625 L 4.984375 -1.078125 L 4.984375 -6.5625 L 5.84375 -6.5625 L 5.84375 0 L 4.65625 0 L 1.75 -5.484375 L 1.75 0 L 0.890625 0 Z M 0.890625 -6.5625 "/>
</symbol>
<symbol overflow="visible" id="glyph0-2">
<path style="stroke:none;" d="M 0.890625 -6.5625 L 1.765625 -6.5625 L 1.765625 -3.875 L 5 -3.875 L 5 -6.5625 L 5.890625 -6.5625 L 5.890625 0 L 5 0 L 5 -3.125 L 1.765625 -3.125 L 1.765625 0 L 0.890625 0 Z M 0.890625 -6.5625 "/>
</symbol>
<symbol overflow="visible" id="glyph0-3">
<path style="stroke:none;" d="M 3.546875 -5.953125 C 2.898438 -5.953125 2.382812 -5.710938 2 -5.234375 C 1.625 -4.753906 1.4375 -4.101562 1.4375 -3.28125 C 1.4375 -2.445312 1.625 -1.789062 2 -1.3125 C 2.382812 -0.832031 2.898438 -0.59375 3.546875 -0.59375 C 4.191406 -0.59375 4.703125 -0.832031 5.078125 -1.3125 C 5.453125 -1.789062 5.640625 -2.445312 5.640625 -3.28125 C 5.640625 -4.101562 5.453125 -4.753906 5.078125 -5.234375 C 4.703125 -5.710938 4.191406 -5.953125 3.546875 -5.953125 Z M 3.546875 -6.6875 C 4.460938 -6.6875 5.195312 -6.375 5.75 -5.75 C 6.300781 -5.132812 6.578125 -4.3125 6.578125 -3.28125 C 6.578125 -2.238281 6.300781 -1.410156 5.75 -0.796875 C 5.195312 -0.179688 4.460938 0.125 3.546875 0.125 C 2.617188 0.125 1.878906 -0.179688 1.328125 -0.796875 C 0.773438 -1.410156 0.5 -2.238281 0.5 -3.28125 C 0.5 -4.3125 0.773438 -5.132812 1.328125 -5.75 C 1.878906 -6.375 2.617188 -6.6875 3.546875 -6.6875 Z M 3.546875 -6.6875 "/>
</symbol>
</g>
</defs>
<g id="surface28977">
<rect x="0" y="0" width="300" height="300" style="fill:rgb(100%,100%,100%);fill-opacity:1;stroke:none;"/>
<path style="fill:none;stroke-width:1.2;stroke-linecap:butt;stroke-linejoin:miter;stroke:rgb(0%,0%,0%);stroke-opacity:1;stroke-miterlimit:10;" d="M 35.25 159.523438 L 37.605469 139.664062 "/>
<path style="fill:none;stroke-width:1.2;stroke-linecap:butt;stroke-linejoin:miter;stroke:rgb(0%,0%,0%);stroke-opacity:1;stroke-miterlimit:10;" d="M 40.160156 158.09375 L 42.042969 142.203125 "/>
<path style="fill:none;stroke-width:1.2;stroke-linecap:butt;stroke-linejoin:miter;stroke:rgb(0%,0%,0%);stroke-opacity:1;stroke-miterlimit:10;" d="M 51.273438 171.496094 L 35.25 159.523438 "/>
<path style="fill:none;stroke-width:1.2;stroke-linecap:butt;stroke-linejoin:miter;stroke:rgb(0%,0%,0%);stroke-opacity:1;stroke-miterlimit:10;" d="M 37.605469 139.664062 L 55.984375 131.773438 "/>
<path style="fill:none;stroke-width:1.2;stroke-linecap:butt;stroke-linejoin:miter;stroke:rgb(0%,0%,0%);stroke-opacity:1;stroke-miterlimit:10;" d="M 55.984375 131.773438 L 72.007812 143.742188 "/>
<path style="fill:none;stroke-width:1.2;stroke-linecap:butt;stroke-linejoin:miter;stroke:rgb(0%,0%,0%);stroke-opacity:1;stroke-miterlimit:10;" d="M 54.769531 136.738281 L 67.589844 146.316406 "/>
<path style="fill:none;stroke-width:1.2;stroke-linecap:butt;stroke-linejoin:miter;stroke:rgb(0%,0%,0%);stroke-opacity:1;stroke-miterlimit:10;" d="M 72.007812 143.742188 L 69.652344 163.605469 "/>
<path style="fill:none;stroke-width:1.2;stroke-linecap:butt;stroke-linejoin:miter;stroke:rgb(0%,0%,0%);stroke-opacity:1;stroke-miterlimit:10;" d="M 72.007812 143.742188 L 90.386719 135.851562 "/>
<path style="fill:none;stroke-width:1.2;stroke-linecap:butt;stroke-linejoin:miter;stroke:rgb(0%,0%,0%);stroke-opacity:1;stroke-miterlimit:10;" d="M 69.652344 163.605469 L 51.273438 171.496094 "/>
<path style="fill:none;stroke-width:1.2;stroke-linecap:butt;stroke-linejoin:miter;stroke:rgb(0%,0%,0%);stroke-opacity:1;stroke-miterlimit:10;" d="M 65.957031 160.070312 L 51.253906 166.382812 "/>
<path style="fill:none;stroke-width:1.2;stroke-linecap:butt;stroke-linejoin:miter;stroke:rgb(0%,0%,0%);stroke-opacity:1;stroke-miterlimit:10;" d="M 90.386719 135.851562 L 98.398438 141.839844 "/>
<path style="fill:none;stroke-width:1.2;stroke-linecap:butt;stroke-linejoin:miter;stroke:rgb(0%,0%,100%);stroke-opacity:1;stroke-miterlimit:10;" d="M 98.398438 141.839844 L 106.410156 147.824219 "/>
<path style="fill:none;stroke-width:1.2;stroke-linecap:butt;stroke-linejoin:miter;stroke:rgb(0%,0%,100%);stroke-opacity:1;stroke-miterlimit:10;" d="M 106.410156 147.824219 L 115.597656 143.878906 "/>
<path style="fill:none;stroke-width:1.2;stroke-linecap:butt;stroke-linejoin:miter;stroke:rgb(0%,0%,0%);stroke-opacity:1;stroke-miterlimit:10;" d="M 115.597656 143.878906 L 124.789062 139.933594 "/>
<path style=" stroke:none;fill-rule:nonzero;fill:rgb(100%,100%,100%);fill-opacity:1;" d="M 99.410156 142.324219 L 113.410156 142.324219 L 113.410156 153.324219 L 99.410156 153.324219 Z M 99.410156 142.324219 "/>
<g style="fill:rgb(0%,0%,100%);fill-opacity:1;">
  <use xlink:href="#glyph0-1" x="99.410156" y="150.987305"/>
  <use xlink:href="#glyph0-2" x="106.387695" y="150.987305"/>
</g>
<path style="fill:none;stroke-width:1.2;stroke-linecap:butt;stroke-linejoin:miter;stroke:rgb(0%,0%,0%);stroke-opacity:1;stroke-miterlimit:10;" d="M 127.125 140.210938 L 128.300781 130.28125 "/>
<path style="fill:none;stroke-width:1.2;stroke-linecap:butt;stroke-linejoin:miter;stroke:rgb(100%,0%,0%);stroke-opacity:1;stroke-miterlimit:10;" d="M 128.300781 130.28125 L 129.480469 120.347656 "/>
<path style="fill:none;stroke-width:1.2;stroke-linecap:butt;stroke-linejoin:miter;stroke:rgb(0%,0%,0%);stroke-opacity:1;stroke-miterlimit:10;" d="M 122.453125 139.65625 L 123.628906 129.726562 "/>
<path style="fill:none;stroke-width:1.2;stroke-linecap:butt;stroke-linejoin:miter;stroke:rgb(100%,0%,0%);stroke-opacity:1;stroke-miterlimit:10;" d="M 123.628906 129.726562 L 124.808594 119.792969 "/>
<path style="fill:none;stroke-width:1.2;stroke-linecap:butt;stroke-linejoin:miter;stroke:rgb(0%,0%,0%);stroke-opacity:1;stroke-miterlimit:10;" d="M 124.789062 139.933594 L 140.8125 151.90625 "/>
<path style=" stroke:none;fill-rule:nonzero;fill:rgb(100%,100%,100%);fill-opacity:1;" d="M 123.144531 114.570312 L 131.144531 114.570312 L 131.144531 125.570312 L 123.144531 125.570312 Z M 123.144531 114.570312 "/>
<g style="fill:rgb(100%,0%,0%);fill-opacity:1;">
  <use xlink:href="#glyph0-3" x="123.144531" y="123.233398"/>
</g>
<path style="fill:none;stroke-width:1.2;stroke-linecap:butt;stroke-linejoin:miter;stroke:rgb(0%,0%,0%);stroke-opacity:1;stroke-miterlimit:10;" d="M 140.8125 151.90625 L 159.1875 144.015625 "/>
<path style="fill:none;stroke-width:1.2;stroke-linecap:butt;stroke-linejoin:miter;stroke:rgb(0%,0%,0%);stroke-opacity:1;stroke-miterlimit:10;" d="M 159.1875 144.015625 L 167.199219 150 "/>
<path style="fill:none;stroke-width:1.2;stroke-linecap:butt;stroke-linejoin:miter;stroke:rgb(0%,0%,100%);stroke-opacity:1;stroke-miterlimit:10;" d="M 167.199219 150 L 175.210938 155.984375 "/>
<path style="fill:none;stroke-width:1.2;stroke-linecap:butt;stroke-linejoin:miter;stroke:rgb(0%,0%,100%);stroke-opacity:1;stroke-miterlimit:10;" d="M 175.210938 155.984375 L 193.589844 148.09375 "/>
<path style=" stroke:none;fill-rule:nonzero;fill:rgb(100%,100%,100%);fill-opacity:1;" d="M 168.210938 150.484375 L 182.210938 150.484375 L 182.210938 161.484375 L 168.210938 161.484375 Z M 168.210938 150.484375 "/>
<g style="fill:rgb(0%,0%,100%);fill-opacity:1;">
  <use xlink:href="#glyph0-1" x="168.210938" y="159.147461"/>
  <use xlink:href="#glyph0-2" x="175.188477" y="159.147461"/>
</g>
<path style="fill:none;stroke-width:1.2;stroke-linecap:butt;stroke-linejoin:miter;stroke:rgb(0%,0%,100%);stroke-opacity:1;stroke-miterlimit:10;" d="M 193.589844 148.09375 L 201.601562 154.082031 "/>
<path style="fill:none;stroke-width:1.2;stroke-linecap:butt;stroke-linejoin:miter;stroke:rgb(0%,0%,0%);stroke-opacity:1;stroke-miterlimit:10;" d="M 201.601562 154.082031 L 209.613281 160.066406 "/>
<path style=" stroke:none;fill-rule:nonzero;fill:rgb(100%,100%,100%);fill-opacity:1;" d="M 186.589844 142.59375 L 200.589844 142.59375 L 200.589844 153.59375 L 186.589844 153.59375 Z M 186.589844 142.59375 "/>
<g style="fill:rgb(0%,0%,100%);fill-opacity:1;">
  <use xlink:href="#glyph0-1" x="186.589844" y="151.256836"/>
  <use xlink:href="#glyph0-2" x="193.567383" y="151.256836"/>
</g>
<path style="fill:none;stroke-width:1.2;stroke-linecap:butt;stroke-linejoin:miter;stroke:rgb(0%,0%,0%);stroke-opacity:1;stroke-miterlimit:10;" d="M 207.277344 159.789062 L 206.097656 169.71875 "/>
<path style="fill:none;stroke-width:1.2;stroke-linecap:butt;stroke-linejoin:miter;stroke:rgb(100%,0%,0%);stroke-opacity:1;stroke-miterlimit:10;" d="M 206.097656 169.71875 L 204.921875 179.652344 "/>
<path style="fill:none;stroke-width:1.2;stroke-linecap:butt;stroke-linejoin:miter;stroke:rgb(0%,0%,0%);stroke-opacity:1;stroke-miterlimit:10;" d="M 211.949219 160.34375 L 210.773438 170.273438 "/>
<path style="fill:none;stroke-width:1.2;stroke-linecap:butt;stroke-linejoin:miter;stroke:rgb(100%,0%,0%);stroke-opacity:1;stroke-miterlimit:10;" d="M 210.773438 170.273438 L 209.59375 180.207031 "/>
<path style="fill:none;stroke-width:1.2;stroke-linecap:butt;stroke-linejoin:miter;stroke:rgb(0%,0%,0%);stroke-opacity:1;stroke-miterlimit:10;" d="M 209.613281 160.066406 L 227.992188 152.175781 "/>
<path style=" stroke:none;fill-rule:nonzero;fill:rgb(100%,100%,100%);fill-opacity:1;" d="M 203.257812 174.429688 L 211.257812 174.429688 L 211.257812 185.429688 L 203.257812 185.429688 Z M 203.257812 174.429688 "/>
<g style="fill:rgb(100%,0%,0%);fill-opacity:1;">
  <use xlink:href="#glyph0-3" x="203.257812" y="183.092773"/>
</g>
<path style="fill:none;stroke-width:1.2;stroke-linecap:butt;stroke-linejoin:miter;stroke:rgb(0%,0%,0%);stroke-opacity:1;stroke-miterlimit:10;" d="M 227.992188 152.175781 L 244.015625 164.148438 "/>
<path style="fill:none;stroke-width:1.2;stroke-linecap:butt;stroke-linejoin:miter;stroke:rgb(0%,0%,0%);stroke-opacity:1;stroke-miterlimit:10;" d="M 232.410156 149.601562 L 245.230469 159.179688 "/>
<path style="fill:none;stroke-width:1.2;stroke-linecap:butt;stroke-linejoin:miter;stroke:rgb(0%,0%,0%);stroke-opacity:1;stroke-miterlimit:10;" d="M 230.347656 132.3125 L 227.992188 152.175781 "/>
<path style="fill:none;stroke-width:1.2;stroke-linecap:butt;stroke-linejoin:miter;stroke:rgb(0%,0%,0%);stroke-opacity:1;stroke-miterlimit:10;" d="M 244.015625 164.148438 L 262.394531 156.257812 "/>
<path style="fill:none;stroke-width:1.2;stroke-linecap:butt;stroke-linejoin:miter;stroke:rgb(0%,0%,0%);stroke-opacity:1;stroke-miterlimit:10;" d="M 262.394531 156.257812 L 263.570312 146.324219 "/>
<path style="fill:none;stroke-width:1.2;stroke-linecap:butt;stroke-linejoin:miter;stroke:rgb(0%,0%,100%);stroke-opacity:1;stroke-miterlimit:10;" d="M 263.570312 146.324219 L 264.75 136.394531 "/>
<path style="fill:none;stroke-width:1.2;stroke-linecap:butt;stroke-linejoin:miter;stroke:rgb(0%,0%,0%);stroke-opacity:1;stroke-miterlimit:10;" d="M 257.957031 153.714844 L 258.898438 145.773438 "/>
<path style="fill:none;stroke-width:1.2;stroke-linecap:butt;stroke-linejoin:miter;stroke:rgb(0%,0%,100%);stroke-opacity:1;stroke-miterlimit:10;" d="M 258.898438 145.773438 L 259.839844 137.828125 "/>
<path style="fill:none;stroke-width:1.2;stroke-linecap:butt;stroke-linejoin:miter;stroke:rgb(0%,0%,100%);stroke-opacity:1;stroke-miterlimit:10;" d="M 264.75 136.394531 L 256.738281 130.410156 "/>
<path style="fill:none;stroke-width:1.2;stroke-linecap:butt;stroke-linejoin:miter;stroke:rgb(0%,0%,0%);stroke-opacity:1;stroke-miterlimit:10;" d="M 256.738281 130.410156 L 248.726562 124.421875 "/>
<path style=" stroke:none;fill-rule:nonzero;fill:rgb(100%,100%,100%);fill-opacity:1;" d="M 261.75 130.894531 L 268.75 130.894531 L 268.75 141.894531 L 261.75 141.894531 Z M 261.75 130.894531 "/>
<g style="fill:rgb(0%,0%,100%);fill-opacity:1;">
  <use xlink:href="#glyph0-1" x="261.75" y="139.557617"/>
</g>
<path style="fill:none;stroke-width:1.2;stroke-linecap:butt;stroke-linejoin:miter;stroke:rgb(0%,0%,0%);stroke-opacity:1;stroke-miterlimit:10;" d="M 248.726562 124.421875 L 230.347656 132.3125 "/>
<path style="fill:none;stroke-width:1.2;stroke-linecap:butt;stroke-linejoin:miter;stroke:rgb(0%,0%,0%);stroke-opacity:1;stroke-miterlimit:10;" d="M 248.746094 129.539062 L 234.042969 135.847656 "/>
</g>
</svg>

<svg xmlns="http://www.w3.org/2000/svg" xmlns:xlink="http://www.w3.org/1999/xlink" width="300pt" height="300pt" viewBox="0 0 300 300"><defs><symbol overflow="visible"><path d="M.453 1.594v-7.938h4.5v7.938zm.5-.5h3.5v-6.938h-3.5zm0 0"/></symbol><symbol overflow="visible" id="a"><path d="M.89-6.563H2.08l2.906 5.485v-5.484h.86V0H4.656L1.75-5.484V0H.89zm0 0"/></symbol><symbol overflow="visible" id="b"><path d="M.89-6.563h.876v2.688H5v-2.688h.89V0H5v-3.125H1.766V0H.89zm0 0"/></symbol><symbol overflow="visible" id="c"><path d="M3.547-5.953c-.65 0-1.164.242-1.547.72-.375.48-.563 1.13-.563 1.952 0 .835.188 1.49.563 1.967.383.48.898.72 1.547.72.644 0 1.156-.24 1.53-.72.376-.476.564-1.132.564-1.968 0-.822-.187-1.474-.562-1.954-.375-.477-.887-.72-1.53-.72zm0-.734c.914 0 1.648.312 2.203.937.55.617.828 1.438.828 2.47 0 1.042-.277 1.87-.828 2.483-.555.617-1.29.922-2.203.922-.93 0-1.668-.305-2.22-.922C.774-1.41.5-2.237.5-3.28c0-1.033.273-1.853.828-2.47.55-.625 1.29-.938 2.22-.938zm0 0"/></symbol></defs><g><path fill="#fff" d="M0 0h300v300H0z"/><path d="M35.25 159.523l2.355-19.86M40.16 158.094l1.883-15.89M51.273 171.496L35.25 159.523M37.605 139.664l18.38-7.89M55.984 131.773l16.024 11.97M54.77 136.738l12.82 9.578M72.008 143.742l-2.356 19.863M72.008 143.742l18.38-7.89M69.652 163.605l-18.38 7.89M65.957 160.07l-14.703 6.313M90.387 135.852l8.01 5.988" stroke-width="1.2" stroke="#000" stroke-miterlimit="10" fill="none"/><path d="M98.398 141.84l8.012 5.984M106.41 147.824l9.188-3.945" stroke-width="1.2" stroke="#00f" stroke-miterlimit="10" fill="none"/><path d="M115.598 143.88l9.19-3.946" stroke-width="1.2" stroke="#000" stroke-miterlimit="10" fill="none"/><path d="M99.41 142.324h14v11h-14zm0 0" fill="#fff"/><g fill="#00f"><use xlink:href="#a" x="99.41" y="150.987"/><use xlink:href="#b" x="106.388" y="150.987"/></g><path d="M127.125 140.21l1.176-9.93" stroke-width="1.2" stroke="#000" stroke-miterlimit="10" fill="none"/><path d="M128.3 130.28l1.18-9.932" stroke-width="1.2" stroke="#f00" stroke-miterlimit="10" fill="none"/><path d="M122.453 139.656l1.176-9.93" stroke-width="1.2" stroke="#000" stroke-miterlimit="10" fill="none"/><path d="M123.63 129.727l1.18-9.934" stroke-width="1.2" stroke="#f00" stroke-miterlimit="10" fill="none"/><path d="M124.79 139.934l16.022 11.972" stroke-width="1.2" stroke="#000" stroke-miterlimit="10" fill="none"/><path d="M123.145 114.57h8v11h-8zm0 0" fill="#fff"/><use xlink:href="#c" x="123.145" y="123.233" fill="#f00"/><path d="M140.813 151.906l18.375-7.89M159.188 144.016l8.01 5.984" stroke-width="1.2" stroke="#000" stroke-miterlimit="10" fill="none"/><path d="M167.2 150l8.01 5.984M175.21 155.984l18.38-7.89" stroke-width="1.2" stroke="#00f" stroke-miterlimit="10" fill="none"/><path d="M168.21 150.484h14v11h-14zm0 0" fill="#fff"/><g fill="#00f"><use xlink:href="#a" x="168.211" y="159.147"/><use xlink:href="#b" x="175.188" y="159.147"/></g><path d="M193.59 148.094l8.012 5.988" stroke-width="1.2" stroke="#00f" stroke-miterlimit="10" fill="none"/><path d="M201.602 154.082l8.01 5.984" stroke-width="1.2" stroke="#000" stroke-miterlimit="10" fill="none"/><path d="M186.59 142.594h14v11h-14zm0 0" fill="#fff"/><g fill="#00f"><use xlink:href="#a" x="186.59" y="151.257"/><use xlink:href="#b" x="193.567" y="151.257"/></g><path d="M207.277 159.79l-1.18 9.93" stroke-width="1.2" stroke="#000" stroke-miterlimit="10" fill="none"/><path d="M206.098 169.72l-1.176 9.932" stroke-width="1.2" stroke="#f00" stroke-miterlimit="10" fill="none"/><path d="M211.95 160.344l-1.177 9.93" stroke-width="1.2" stroke="#000" stroke-miterlimit="10" fill="none"/><path d="M210.773 170.273l-1.18 9.934" stroke-width="1.2" stroke="#f00" stroke-miterlimit="10" fill="none"/><path d="M209.613 160.066l18.38-7.89" stroke-width="1.2" stroke="#000" stroke-miterlimit="10" fill="none"/><path d="M203.258 174.43h8v11h-8zm0 0" fill="#fff"/><use xlink:href="#c" x="203.258" y="183.093" fill="#f00"/><path d="M227.992 152.176l16.024 11.972M232.41 149.602l12.82 9.578M230.348 132.313l-2.356 19.863M244.016 164.148l18.38-7.89M262.395 156.258l1.175-9.934" stroke-width="1.2" stroke="#000" stroke-miterlimit="10" fill="none"/><path d="M263.57 146.324l1.18-9.93" stroke-width="1.2" stroke="#00f" stroke-miterlimit="10" fill="none"/><path d="M257.957 153.715l.94-7.942" stroke-width="1.2" stroke="#000" stroke-miterlimit="10" fill="none"/><path d="M258.898 145.773l.942-7.945M264.75 136.395l-8.012-5.985" stroke-width="1.2" stroke="#00f" stroke-miterlimit="10" fill="none"/><path d="M256.738 130.41l-8.01-5.988" stroke-width="1.2" stroke="#000" stroke-miterlimit="10" fill="none"/><path d="M261.75 130.895h7v11h-7zm0 0" fill="#fff"/><use xlink:href="#a" x="261.75" y="139.558" fill="#00f"/><path d="M248.727 124.422l-18.38 7.89M248.746 129.54l-14.703 6.308" stroke-width="1.2" stroke="#000" stroke-miterlimit="10" fill="none"/></g></svg>
